X:1
T:X-polska
R:Polska
O:Orsa, Dalarna
Z:Anton Teljebäck
M:3/4
L:1/8
K:Ador
|: c>(B A)>uG A>c | (3e(fe) d<e c>A |  c>(B A)>(G A)>c | (3(BGB) Az ([E2A,2] | 
c)>(B A)>uG A>c | (3e(fe) d<e c>e | (3g(ag) (3f(df) e>g | (3(fdf) e2 z2 :|
|: (3(Ace) a2 (a2 | (3g)(eg) (3f(df) e>c |(3(Ace) a2 (3(aba | (3g)(eg) (3f(df) e>c | 
(3e(fe) d<e c>e | (3g(ag) (3f(df) e>c |  (3e(fe) d<e c>e |  (3g(ag) (3f(df) e>c |
(3(efe) (d<e) c>A |  c>(B A)>uG A>c | (3(BGB) A2z2 :|

